icons/svg/16x16/info squircle/outline.svg

<svg width="16" height="16" fill="none" xmlns="http://www.w3.org/2000/svg">
  <path fill-rule="evenodd" clip-rule="evenodd" d="M7 7h2V5H7v2zm0 4h2V8H7v3zm5.654.249a1.835 1.835 0 01-1.404 1.405C10.189 12.884 9.096 13 8 13s-2.189-.116-3.25-.346a1.838 1.838 0 01-1.405-1.405 15.43 15.43 0 010-6.499 1.838 1.838 0 011.406-1.404C5.811 3.116 6.904 3 8 3s2.189.116 3.25.346a1.835 1.835 0 011.404 1.405C12.884 5.812 13 6.904 13 8s-.116 2.188-.346 3.249zm1.955-6.921a3.83 3.83 0 00-2.937-2.937A17.357 17.357 0 008 1c-1.26 0-2.488.135-3.672.391a3.828 3.828 0 00-2.937 2.937A17.357 17.357 0 001 8c0 1.26.135 2.488.391 3.672a3.83 3.83 0 002.937 2.937C5.512 14.865 6.74 15 8 15c1.26 0 2.488-.135 3.672-.391a3.83 3.83 0 002.937-2.937C14.865 10.488 15 9.26 15 8c0-1.26-.135-2.488-.391-3.672z" fill="#000"/>
</svg>

<svg xmlns="http://www.w3.org/2000/svg" width="16" height="16" viewBox="0 0 16 16">
  <path fill-rule="evenodd" d="M7,6 L9,6 L9,4 L7,4 L7,6 Z M7,12 L9,12 L9,7 L7,7 L7,12 Z M12.654,11.249 C12.503,11.951 11.951,12.503 11.25,12.654 C10.189,12.884 9.096,13 8,13 C6.904,13 5.811,12.884 4.75,12.654 C4.049,12.503 3.497,11.951 3.345,11.249 C3.116,10.189 3,9.096 3,8 C3,6.904 3.116,5.811 3.345,4.75 C3.497,4.049 4.049,3.497 4.751,3.346 C5.811,3.116 6.904,3 8,3 C9.096,3 10.189,3.116 11.25,3.346 C11.951,3.497 12.503,4.049 12.654,4.751 C12.884,5.812 13,6.904 13,8 C13,9.096 12.884,10.188 12.654,11.249 L12.654,11.249 Z M14.609,4.328 C14.291,2.856 13.144,1.709 11.672,1.391 C10.488,1.135 9.26,1 8,1 C6.74,1 5.512,1.135 4.328,1.391 C2.856,1.708 1.709,2.856 1.391,4.328 C1.135,5.512 1,6.74 1,8 C1,9.26 1.135,10.488 1.391,11.672 C1.709,13.144 2.856,14.291 4.328,14.609 C5.512,14.865 6.74,15 8,15 C9.26,15 10.488,14.865 11.672,14.609 C13.144,14.291 14.291,13.144 14.609,11.672 C14.865,10.488 15,9.26 15,8 C15,6.74 14.865,5.512 14.609,4.328 L14.609,4.328 Z"/>
</svg>
